icons/svg/16x16/download/filled.svg

<svg xmlns="http://www.w3.org/2000/svg" width="16" height="16" viewBox="0 0 16 16">
  <path fill-rule="evenodd" d="M4.8994,1.6106 C5.3854,2.2266 5.7294,2.8826 5.9574,3.5796 C6.3084,4.6696 6.4024,5.8196 6.4574,7.0006 L4.0004,7.0006 L8.0004,12.0006 L12.0004,7.0006 L9.4654,7.0006 C9.3414,5.4466 8.8374,3.8686 7.8684,2.5386 C7.2844,1.7376 6.5234,1.0496 5.6594,0.6286 C4.8054,0.1876 3.8844,-0.0074 3.0004,0.0006 C3.7534,0.4756 4.4044,1.0066 4.8994,1.6106 M15.0004,10.0006 L15.0004,12.0006 C15.0004,13.6546 13.6544,15.0006 12.0004,15.0006 L4.0004,15.0006 C2.3454,15.0006 1.0004,13.6546 1.0004,12.0006 L1.0004,10.0006 C1.0004,9.4476 1.4474,9.0006 2.0004,9.0006 C2.5524,9.0006 3.0004,9.4476 3.0004,10.0006 L3.0004,12.0006 C3.0004,12.5516 3.4484,13.0006 4.0004,13.0006 L12.0004,13.0006 C12.5514,13.0006 13.0004,12.5516 13.0004,12.0006 L13.0004,10.0006 C13.0004,9.4476 13.4474,9.0006 14.0004,9.0006 C14.5524,9.0006 15.0004,9.4476 15.0004,10.0006"/>
</svg>

<svg width="16" height="16" fill="none" xmlns="http://www.w3.org/2000/svg">
  <path fill-rule="evenodd" clip-rule="evenodd" d="M4.9 1.61a6.33 6.33 0 011.057 1.97c.351 1.09.445 2.24.5 3.42H4l4 5 4-5H9.465c-.124-1.552-.628-3.13-1.597-4.46-.584-.801-1.345-1.49-2.209-1.91A5.687 5.687 0 003 0c.753.475 1.404 1.006 1.9 1.61zM15 10v2c0 1.655-1.346 3-3 3H4c-1.655 0-3-1.345-3-3v-2a1 1 0 112 0v2a1 1 0 001 1h8c.551 0 1-.448 1-1v-2a1 1 0 112 0z" fill="#000"/>
</svg>
